X:910
T:Reel 910
M:4/4
K:Gmaj
L:1/8
G2Bd gdBd|cBAc BGEF|G2Bd gdBd|ecAF GFED|G2Bd gdBd|cBAc BGEF|G2Bd gdBd|ecAF G2z2|dgBd e2Bd|edBc d2 (3Bcd |egef gfge|dcBA G2z2|gdBd edBd|egfe e2dB|GcBc GABc|dgfa g2z2|
